X:93
T:Johnny O'Leary's
R:slide
H:Also in G, #108
Z:id:hn-slide-93
M:6/8
L:1/8
K:A
EFG | A2f ecA | G2F F2A | GAB EFG | A2c EFG |
A2f ecA | G2F F2A | GAB EFG | A3 :|
|: A2c | e2c a2c | e2d B2c | dcd fef | e2c A2c |
e2c a2c | e2d B2a | gfe dcB | A3 :|
|: A2a | gfe d2f | f2e c2d | efe dcB | A2B c2a |
gfe d2f | f2e c2d | efe dcB | A3 :|

